X:1
T: Mary of the Grove
C:
R:Reel
Q: 232
K:Em
M:4/4
L:1/8
dc|:B2 GB EB GB|A2 FA DA FA|B2 GB EB GB|Bc AF GE Ez|
B2 GB EB GB|A2 FA DA FA|B2 GB EB GB|FB AF GE Ez|
gf ef gf ed|Bd AG FA Df|gf ef gf ed|Bd ef ge e2|
gf ef gf ed|Bd AG FG AF|E2 EF GF GA|Bd ef gf ed:|
